src/icons/outline/symbols/signal-antenna.svg

<svg width="24" height="24" viewBox="0 0 24 24" fill="none" xmlns="http://www.w3.org/2000/svg">
<g clip-path="url(#clip0_4704_691)">
<path fill-rule="evenodd" clip-rule="evenodd" d="M11.995 7.70008C13.5497 7.70026 14.8075 8.94692 14.8075 10.4872C14.8075 11.7639 13.9428 12.8363 12.7616 13.1669V21.2401C12.7615 21.6554 12.4142 21.9997 11.995 21.9999C11.5757 21.9999 11.2276 21.6555 11.2275 21.2401V13.1669C10.0464 12.8362 9.18155 11.7638 9.18155 10.4872C9.1816 8.94681 10.4402 7.70008 11.995 7.70008ZM11.995 9.22059C11.2892 9.22059 10.7158 9.78796 10.7157 10.4872C10.7157 11.1865 11.2892 11.7538 11.995 11.7538C12.7007 11.7536 13.2733 11.1864 13.2733 10.4872C13.2733 9.78807 12.7007 9.22077 11.995 9.22059Z" fill="#3C3B44"/>
<path d="M4.87491 2.18739C5.20217 1.91383 5.68266 1.95415 5.9589 2.27821C6.2351 2.60251 6.19445 3.0788 5.8671 3.35243C5.47845 3.67667 5.12064 4.04162 4.78311 4.42665C1.40739 8.35873 1.88793 14.2772 5.8671 17.6317C6.19445 17.9054 6.22487 18.3816 5.9589 18.7059C5.80546 18.8781 5.59066 18.9696 5.37589 18.9696H5.36612C5.19227 18.9696 5.01855 18.9085 4.86515 18.787C2.63515 16.9021 1.2743 14.2674 1.03897 11.369C0.793464 8.4706 1.71439 5.65291 3.6171 3.43348C4.00571 2.98772 4.42497 2.56225 4.87491 2.18739Z" fill="#3C3B44"/>
<path d="M18.04 2.26844C18.3161 1.94417 18.7976 1.91322 19.1249 2.17665C19.575 2.55161 19.994 2.97782 20.3827 3.42372C22.2854 5.64314 23.2064 8.46083 22.9608 11.3593C22.7255 14.2575 21.3548 16.8923 19.1249 18.7772C18.9818 18.8987 18.8079 18.9597 18.6239 18.9599V18.9696C18.4091 18.9696 18.1934 18.8782 18.04 18.7059C17.7641 18.3817 17.8055 17.9052 18.1327 17.6317C22.1118 14.2873 22.5924 8.35905 19.2167 4.41688C18.8894 4.03185 18.5214 3.66691 18.1327 3.34266C17.8055 3.06912 17.7743 2.59274 18.04 2.26844Z" fill="#3C3B44"/>
<path d="M7.52433 5.27821C7.85154 5.0047 8.33206 5.0451 8.60831 5.36903C8.88449 5.69331 8.84379 6.16961 8.51651 6.44325C8.30175 6.62562 8.08733 6.82876 7.90323 7.05165C5.99038 9.29124 6.26628 12.6555 8.51651 14.5507C8.84384 14.8243 8.87423 15.3006 8.60831 15.6249C8.45487 15.7972 8.24012 15.8886 8.0253 15.8886V15.8788C7.85152 15.8787 7.67766 15.8177 7.52433 15.6962C4.61921 13.2538 4.27191 8.92648 6.73722 6.05848C6.98264 5.77484 7.24823 5.51122 7.52433 5.27821Z" fill="#3C3B44"/>
<path d="M15.3905 5.35926C15.6667 5.0451 16.1481 5.00495 16.4755 5.26844C16.7618 5.50147 17.0274 5.77519 17.2626 6.04872C19.7279 8.92685 19.3704 13.244 16.4755 15.6864C16.3324 15.8079 16.1585 15.8689 15.9745 15.869V15.8788C15.7597 15.8788 15.544 15.7874 15.3905 15.6151C15.1147 15.2908 15.1561 14.8144 15.4833 14.5409C17.7438 12.6457 18.0197 9.28148 16.0966 7.04188C15.9125 6.81895 15.6981 6.61588 15.4833 6.43348C15.156 6.15989 15.1247 5.68356 15.3905 5.35926Z" fill="#3C3B44"/>
</g>
<defs>
<clipPath id="clip0_4704_691">
<rect width="24" height="24" fill="white"/>
</clipPath>
</defs>
</svg>

<svg xmlns="http://www.w3.org/2000/svg" width="24" height="24" fill="none" viewBox="0 0 24 24"><g fill="currentColor" clip-path="url(#a)"><path fill-rule="evenodd" d="M11.995 7.7c1.555 0 2.813 1.247 2.813 2.787 0 1.277-.865 2.35-2.046 2.68v8.073a.77.77 0 0 1-.767.76.77.77 0 0 1-.768-.76v-8.073a2.79 2.79 0 0 1-2.045-2.68c0-1.54 1.258-2.787 2.813-2.787m0 1.52c-.706 0-1.28.568-1.28 1.267 0 .7.574 1.267 1.28 1.267s1.278-.568 1.278-1.267-.572-1.266-1.278-1.266" clip-rule="evenodd"/><path d="M4.875 2.187a.77.77 0 0 1 1.084.091c.276.325.235.8-.092 1.074a10 10 0 0 0-1.084 1.075c-3.376 3.932-2.895 9.85 1.084 13.205.327.273.358.75.092 1.074a.78.78 0 0 1-.583.264h-.01a.8.8 0 0 1-.5-.183 10.8 10.8 0 0 1-3.827-7.418c-.246-2.898.675-5.716 2.578-7.936a11 11 0 0 1 1.258-1.246m13.165.081a.78.78 0 0 1 1.085-.091c.45.375.869.8 1.258 1.247 1.902 2.22 2.823 5.037 2.578 7.935-.235 2.899-1.606 5.533-3.836 7.418a.77.77 0 0 1-.501.183v.01a.754.754 0 0 1-.491-1.338 9.325 9.325 0 0 0 0-14.29.763.763 0 0 1-.093-1.074"/><path d="M7.524 5.278a.77.77 0 0 1 1.084.091c.276.324.236.8-.091 1.074a5.3 5.3 0 0 0 0 8.107c.327.274.357.75.091 1.075a.78.78 0 0 1-.583.264v-.01a.8.8 0 0 1-.5-.183 6.796 6.796 0 0 1 0-10.418m7.865.082a.79.79 0 0 1 1.085-.092 6.804 6.804 0 0 1 0 10.418.76.76 0 0 1-.5.183v.01a.754.754 0 0 1-.491-1.338 5.28 5.28 0 0 0 .613-7.5 5 5 0 0 0-.614-.608.763.763 0 0 1-.093-1.074"/></g><defs><clipPath id="a"><path fill="currentColor" d="M0 0h24v24H0z"/></clipPath></defs></svg>
